dist/icons/svgs/calendar-clock-solid.svg

<svg xmlns="http://www.w3.org/2000/svg" width="24" height="24" fill="currentcolor" class="icon-calendar-clock-solid" viewBox="0 0 24 24">
  <path d="M5 3.25C5 2.58594 5.54688 2 6.25 2C6.91406 2 7.5 2.58594 7.5 3.25V4.5H12.5V3.25C12.5 2.58594 13.0469 2 13.75 2C14.4141 2 15 2.58594 15 3.25V4.5H16.875C17.8906 4.5 18.75 5.35938 18.75 6.375V8.25H1.25V6.375C1.25 5.35938 2.07031 4.5 3.125 4.5H5V3.25ZM18.75 9.5V9.53906C18.5156 9.53906 18.3203 9.5 18.125 9.5C14.2969 9.5 11.25 12.5859 11.25 16.375C11.25 18.7188 12.3828 20.7891 14.1406 22H3.125C2.07031 22 1.25 21.1797 1.25 20.125V9.5H18.125H18.75ZM23.75 16.375C23.75 18.4062 22.6562 20.2422 20.9375 21.2578C19.1797 22.2734 17.0312 22.2734 15.3125 21.2578C13.5547 20.2422 12.5 18.4062 12.5 16.375C12.5 14.3828 13.5547 12.5469 15.3125 11.5312C17.0312 10.5156 19.1797 10.5156 20.9375 11.5312C22.6562 12.5469 23.75 14.3828 23.75 16.375ZM18.125 13.25C17.7734 13.25 17.5 13.5625 17.5 13.875V16.375C17.5 16.7266 17.7734 17 18.125 17H20C20.3125 17 20.625 16.7266 20.625 16.375C20.625 16.0625 20.3125 15.75 20 15.75H18.75V13.875C18.75 13.5625 18.4375 13.25 18.125 13.25Z"/>
</svg>

<svg xmlns="http://www.w3.org/2000/svg" width="24" height="24" fill="currentColor" class="icon-calendar-clock-solid" viewBox="0 0 24 24">
  <path d="M5 3.25C5 2.586 5.547 2 6.25 2c.664 0 1.25.586 1.25 1.25V4.5h5V3.25c0-.664.547-1.25 1.25-1.25.664 0 1.25.586 1.25 1.25V4.5h1.875c1.016 0 1.875.86 1.875 1.875V8.25H1.25V6.375c0-1.016.82-1.875 1.875-1.875H5zM18.75 9.5v.04c-.234 0-.43-.04-.625-.04a6.86 6.86 0 0 0-6.875 6.875c0 2.344 1.133 4.414 2.89 5.625H3.126a1.85 1.85 0 0 1-1.875-1.875V9.5zm5 6.875c0 2.031-1.094 3.867-2.812 4.883-1.758 1.015-3.907 1.015-5.625 0a5.6 5.6 0 0 1-2.813-4.883 5.58 5.58 0 0 1 2.813-4.844c1.718-1.015 3.867-1.015 5.624 0 1.72 1.016 2.813 2.852 2.813 4.844m-5.625-3.125a.64.64 0 0 0-.625.625v2.5c0 .352.273.625.625.625H20a.64.64 0 0 0 .625-.625c0-.312-.312-.625-.625-.625h-1.25v-1.875c0-.312-.312-.625-.625-.625"/>
</svg>
